resources/icons/color/streamingdataflow.svg

<svg width="64" height="64" viewBox="0 0 64 64" fill="none" xmlns="http://www.w3.org/2000/svg">
<rect x="6.5" y="6.5" width="51" height="51" rx="6.5" fill="url(#paint0_linear_41743_63001)"/>
<rect x="6.5" y="6.5" width="51" height="51" rx="6.5" fill="url(#paint1_radial_41743_63001)" fill-opacity="0.2"/>
<rect x="6.5" y="6.5" width="51" height="51" rx="6.5" stroke="url(#paint2_linear_41743_63001)"/>
<path d="M26.75 27.9298C28.6006 27.5787 30 25.9528 30 24C30 21.7909 28.2091 20 26 20C23.7909 20 22 21.7909 22 24C22 25.9528 23.3994 27.5788 25.25 27.9298L25.25 36.0702C23.3994 36.4213 22 38.0472 22 40C22 42.2091 23.7909 44 26 44C28.2091 44 30 42.2091 30 40C30 38.0472 28.6006 36.4213 26.75 36.0702L26.75 32.7964L33.9998 32.7964C36.6232 32.7964 38.7498 30.6698 38.7498 28.0464V27.9298C40.6005 27.5789 42 25.9529 42 24C42 21.7909 40.2091 20 38 20C35.7909 20 34 21.7909 34 24C34 25.9527 35.3993 27.5786 37.2498 27.9298V28.0464C37.2498 29.8413 35.7947 31.2964 33.9998 31.2964L26.75 31.2964L26.75 27.9298Z" fill="url(#paint3_linear_41743_63001)"/>
<path d="M46.0185 46.4021C46.1164 45.7692 46.6155 45.2463 47.2822 45.1479C47.9434 45.0504 48.6191 45 49.3056 45C56.9037 45 63.0632 51.1595 63.0632 58.7576C63.0632 59.3707 63.0229 60.0734 62.9417 60.6923C62.8434 61.441 62.2088 61.9879 61.4752 61.9971L61.4749 61.9999H54.526C54.4987 62.0006 54.4712 62.0006 54.4436 61.9999H49.2802C49.2701 62 49.2601 62 49.25 62C49.2399 62 49.2299 62 49.2198 61.9999H49.1711L49.1703 61.999C47.4625 61.9579 46.0812 60.5995 46.0034 58.9011L46 58.8977V46.4052L46.0185 46.4021Z" fill="#F5F5F5"/>
<path d="M49.3055 47C48.717 47 48.1388 47.0432 47.574 47.1265C47.3008 47.1668 47.0467 46.978 47.0064 46.7049C46.9661 46.4317 47.1549 46.1775 47.4281 46.1372C48.041 46.0468 48.6679 46 49.3055 46C56.3513 46 62.063 51.7118 62.063 58.7576C62.063 59.3327 62.0249 59.9915 61.95 60.5621C61.9141 60.8359 61.663 61.0288 61.3892 60.9928C61.1154 60.9569 60.9226 60.7058 60.9585 60.432C61.0271 59.9096 61.063 59.2946 61.063 58.7576C61.063 52.264 55.799 47 49.3055 47Z" fill="url(#paint4_linear_41743_63001)"/>
<path d="M47.568 50.5811C47.9548 50.528 48.4123 50.5 48.8203 50.5C53.622 50.5 57.5146 54.3926 57.5146 59.1943C57.5146 59.5848 57.489 60.0616 57.4408 60.4362C57.4055 60.7101 57.599 60.9607 57.8729 60.9959C58.1468 61.0311 58.3974 60.8377 58.4326 60.5638C58.4872 60.1391 58.5146 59.6189 58.5146 59.1943C58.5146 53.8403 54.1743 49.5 48.8203 49.5C48.373 49.5 47.8696 49.5304 47.4321 49.5904C47.1586 49.6279 46.9672 49.8801 47.0047 50.1536C47.0422 50.4272 47.2944 50.6186 47.568 50.5811Z" fill="url(#paint5_linear_41743_63001)"/>
<path d="M51.5 58.75C51.5 59.9926 50.4926 61 49.25 61C48.0074 61 47 59.9926 47 58.75C47 57.5074 48.0074 56.5 49.25 56.5C50.4926 56.5 51.5 57.5074 51.5 58.75Z" fill="url(#paint6_linear_41743_63001)"/>
<path d="M47.574 54.0605C47.8442 54.0207 48.1208 54 48.4026 54C51.509 54 54.0272 56.5182 54.0272 59.6245C54.0272 59.896 54.008 60.1703 53.9712 60.4298C53.9324 60.7032 54.1227 60.9563 54.3961 60.9951C54.6695 61.0338 54.9225 60.8436 54.9613 60.5702C55.0048 60.263 55.0272 59.9418 55.0272 59.6245C55.0272 55.9659 52.0613 53 48.4026 53C48.0718 53 47.7464 53.0243 47.4281 53.0713C47.1549 53.1116 46.9661 53.3657 47.0064 53.6389C47.0467 53.9121 47.3008 54.1008 47.574 54.0605Z" fill="url(#paint7_linear_41743_63001)"/>
<defs>
<linearGradient id="paint0_linear_41743_63001" x1="20.4444" y1="6" x2="27.0222" y2="58.6222" gradientUnits="userSpaceOnUse">
<stop stop-color="white"/>
<stop offset="1" stop-color="#EBEBEB"/>
</linearGradient>
<radialGradient id="paint1_radial_41743_63001" cx="0" cy="0" r="1" gradientUnits="userSpaceOnUse" gradientTransform="translate(22.6111 19.5417) rotate(56.3099) scale(49.4762 42.8159)">
<stop offset="0.177083" stop-color="white"/>
<stop offset="1" stop-color="#B8B8B8"/>
</radialGradient>
<linearGradient id="paint2_linear_41743_63001" x1="22.7917" y1="6" x2="29.7931" y2="58.5109" gradientUnits="userSpaceOnUse">
<stop stop-color="#BBBBBB"/>
<stop offset="1" stop-color="#888888"/>
</linearGradient>
<linearGradient id="paint3_linear_41743_63001" x1="22" y1="20" x2="45.6066" y2="39.6721" gradientUnits="userSpaceOnUse">
<stop stop-color="#7751B8"/>
<stop offset="1" stop-color="#5A409C"/>
</linearGradient>
<linearGradient id="paint4_linear_41743_63001" x1="47" y1="46" x2="61.9999" y2="61.0629" gradientUnits="userSpaceOnUse">
<stop stop-color="#7751B8"/>
<stop offset="1" stop-color="#5A409C"/>
</linearGradient>
<linearGradient id="paint5_linear_41743_63001" x1="47" y1="46" x2="61.9999" y2="61.0629" gradientUnits="userSpaceOnUse">
<stop stop-color="#7751B8"/>
<stop offset="1" stop-color="#5A409C"/>
</linearGradient>
<linearGradient id="paint6_linear_41743_63001" x1="47" y1="46" x2="61.9999" y2="61.0629" gradientUnits="userSpaceOnUse">
<stop stop-color="#7751B8"/>
<stop offset="1" stop-color="#5A409C"/>
</linearGradient>
<linearGradient id="paint7_linear_41743_63001" x1="47" y1="46" x2="61.9999" y2="61.0629" gradientUnits="userSpaceOnUse">
<stop stop-color="#7751B8"/>
<stop offset="1" stop-color="#5A409C"/>
</linearGradient>
</defs>
</svg>

<svg xmlns="http://www.w3.org/2000/svg" width="64" height="64" fill="currentColor"><path fill="url(#a)" d="M51 6.5H13A6.5 6.5 0 0 0 6.5 13v38a6.5 6.5 0 0 0 6.5 6.5h38a6.5 6.5 0 0 0 6.5-6.5V13A6.5 6.5 0 0 0 51 6.5Z"/><path fill="url(#b)" fill-opacity=".2" d="M51 6.5H13A6.5 6.5 0 0 0 6.5 13v38a6.5 6.5 0 0 0 6.5 6.5h38a6.5 6.5 0 0 0 6.5-6.5V13A6.5 6.5 0 0 0 51 6.5Z"/><path stroke="currentColor" d="M51 6.5H13A6.5 6.5 0 0 0 6.5 13v38a6.5 6.5 0 0 0 6.5 6.5h38a6.5 6.5 0 0 0 6.5-6.5V13A6.5 6.5 0 0 0 51 6.5Z"/><path fill="url(#c)" d="M26.75 27.93A4.001 4.001 0 0 0 26 20a4 4 0 0 0-.75 7.93v8.14A4.001 4.001 0 0 0 26 44a4 4 0 0 0 .75-7.93v-3.274H34a4.75 4.75 0 0 0 4.75-4.75v-.116a4.001 4.001 0 1 0-1.5 0v.116a3.25 3.25 0 0 1-3.25 3.25h-7.25V27.93Z"/><path fill="#F5F5F5" d="M46.019 46.402a1.5 1.5 0 0 1 1.263-1.254A13.865 13.865 0 0 1 49.306 45c7.598 0 13.757 6.16 13.757 13.758 0 .613-.04 1.315-.121 1.934a1.5 1.5 0 0 1-1.467 1.305V62H49.17v-.001a3.25 3.25 0 0 1-3.168-3.098L46 58.898V46.405l.019-.003Z"/><path fill="url(#d)" d="M49.306 47c-.589 0-1.167.043-1.732.127a.5.5 0 1 1-.146-.99A12.86 12.86 0 0 1 49.306 46c7.045 0 12.757 5.712 12.757 12.758 0 .575-.038 1.233-.113 1.804a.5.5 0 1 1-.992-.13c.07-.522.105-1.137.105-1.674C61.063 52.264 55.799 47 49.305 47Z"/><path fill="url(#e)" d="M47.568 50.581a9.666 9.666 0 0 1 1.252-.081 8.694 8.694 0 0 1 8.695 8.694c0 .39-.026.868-.074 1.242a.5.5 0 1 0 .992.128c.054-.425.082-.945.082-1.37 0-5.354-4.34-9.694-9.695-9.694-.447 0-.95.03-1.388.09a.5.5 0 0 0 .136.991Z"/><path fill="url(#f)" d="M51.5 58.75a2.25 2.25 0 1 1-4.5 0 2.25 2.25 0 0 1 4.5 0Z"/><path fill="url(#g)" d="M47.574 54.06a5.625 5.625 0 0 1 6.397 6.37.5.5 0 0 0 .99.14 6.625 6.625 0 0 0-7.533-7.499.5.5 0 1 0 .146.99Z"/><defs><linearGradient id="a" x1="20.444" x2="27.022" y1="6" y2="58.622" gradientUnits="userSpaceOnUse"><stop stop-color="#fff"/><stop offset="1" stop-color="#EBEBEB"/></linearGradient><linearGradient id="c" x1="22" x2="45.607" y1="20" y2="39.672" gradientUnits="userSpaceOnUse"><stop stop-color="#7751B8"/><stop offset="1" stop-color="#5A409C"/></linearGradient><linearGradient id="d" x1="47" x2="62" y1="46" y2="61.063" gradientUnits="userSpaceOnUse"><stop stop-color="#7751B8"/><stop offset="1" stop-color="#5A409C"/></linearGradient><linearGradient id="e" x1="47" x2="62" y1="46" y2="61.063" gradientUnits="userSpaceOnUse"><stop stop-color="#7751B8"/><stop offset="1" stop-color="#5A409C"/></linearGradient><linearGradient id="f" x1="47" x2="62" y1="46" y2="61.063" gradientUnits="userSpaceOnUse"><stop stop-color="#7751B8"/><stop offset="1" stop-color="#5A409C"/></linearGradient><linearGradient id="g" x1="47" x2="62" y1="46" y2="61.063" gradientUnits="userSpaceOnUse"><stop stop-color="#7751B8"/><stop offset="1" stop-color="#5A409C"/></linearGradient><radialGradient id="b" cx="0" cy="0" r="1" gradientTransform="rotate(56.31 -6.951 30.895) scale(49.4762 42.8159)" gradientUnits="userSpaceOnUse"><stop offset=".177" stop-color="#fff"/><stop offset="1" stop-color="#B8B8B8"/></radialGradient></defs></svg>
